X: 21602
T: NEW BUMPKIN
%R: jig
B: W. Hamilton "Universal Tune-Book" Vol. 2 Glasgow 1846 p.160 #2
S: http://s3-eu-west-1.amazonaws.com/itma.dl.printmaterial/book_pdfs/hamiltonvol2web.pdf
Z: 2016 John Chambers <jc:trillian.mit.edu>
M: 6/8
L: 1/8
K: G
% - - - - - - - - - - - - - - - - - - - - - - - - -
|:\
g3 dBd | c2B A2c | BdB A2G | F>EF D3 |\
g3 dBd | c2B Ace | dcB AGF | G3 G3 :|
|:\
D3 EDE | DGB d2d | c2B A2G | FEF D2D |\
E2c cde | dBG G2g | dBG cAF | G3 G3 :|
B/c/ |\
dBd ege | dBd c2A | dBG EFG | ABG FED |\
dBd ege | dBd c2A | dBG DEF | G3 G2 |]
B/c/ |\
dBd ege | dBd c2A | dBG EFG | ABG FED |\
dgb bgd | cfa afc | Bed cBA | GDC B,A,G, |]
% - - - - - - - - - - - - - - - - - - - - - - - - -

%%sep 1 1 500
%%sep 1 1 500

